www/assets/icons/local_library.svg

<svg width="24" height="24" viewBox="0 0 24 24" xmlns="http://www.w3.org/2000/svg" fill='currentColor'><path d="M12 11.2751C9.64 9.0751 6.48 7.7251 3 7.7251V18.7251C6.48 18.7251 9.64 20.0751 12 22.2751C14.36 20.0851 17.52 18.7251 21 18.7251V7.7251C17.52 7.7251 14.36 9.0751 12 11.2751ZM12 7.7251C13.66 7.7251 15 6.3851 15 4.7251C15 3.0651 13.66 1.7251 12 1.7251C10.34 1.7251 9 3.0651 9 4.7251C9 6.3851 10.34 7.7251 12 7.7251Z"/></svg>

<svg xmlns="http://www.w3.org/2000/svg" width="24" height="24" viewBox="0 0 24 24" fill='currentColor'><path d="M12 11.275c-2.36-2.2-5.52-3.55-9-3.55v11c3.48 0 6.64 1.35 9 3.55 2.36-2.19 5.52-3.55 9-3.55v-11c-3.48 0-6.64 1.35-9 3.55m0-3.55c1.66 0 3-1.34 3-3s-1.34-3-3-3-3 1.34-3 3 1.34 3 3 3"/></svg>
